dist/assets/images/icons/what-is-up.svg

<svg width="21" height="21" viewBox="0 0 21 21" fill="none" xmlns="http://www.w3.org/2000/svg">
<path d="M10.5 0C4.70653 0 0 4.70653 0 10.5C0 12.3622 0.510705 14.1001 1.36243 15.6171L0.0169412 20.4204C-0.00455423 20.4973 -0.00552547 20.5784 0.0141244 20.6558C0.0337742 20.7332 0.0733586 20.804 0.128931 20.8613C0.184503 20.9186 0.254121 20.9603 0.330844 20.9823C0.407567 21.0043 0.488714 21.0058 0.566194 20.9866L5.57456 19.7455C7.04624 20.5311 8.71618 21 10.5 21C16.2935 21 21 16.2935 21 10.5C21 4.70653 16.2935 0 10.5 0ZM10.5 0.913043C15.8 0.913043 20.087 5.2 20.087 10.5C20.087 15.8 15.8 20.087 10.5 20.087C8.80084 20.087 7.20945 19.644 5.826 18.8699C5.72482 18.8133 5.60592 18.7974 5.49342 18.8253L1.10742 19.9122L2.2835 15.7161C2.30033 15.6568 2.30498 15.5947 2.29716 15.5336C2.28935 15.4724 2.26923 15.4135 2.23803 15.3604C1.39727 13.9347 0.913043 12.2759 0.913043 10.5C0.913043 5.2 5.2 0.913043 10.5 0.913043ZM6.68466 5.02174C6.39201 5.02174 5.97406 5.13062 5.63073 5.50055C5.42451 5.72275 4.56522 6.55999 4.56522 8.03193C4.56522 9.56654 5.62955 10.8907 5.75824 11.0608H5.75913V11.0617C5.74692 11.0457 5.92247 11.2999 6.1568 11.6047C6.39113 11.9096 6.71882 12.3099 7.13048 12.7434C7.9538 13.6102 9.11139 14.6121 10.5481 15.2248C11.2098 15.5066 11.7318 15.6767 12.1273 15.8008C12.8601 16.031 13.5277 15.996 14.0291 15.9221C14.4045 15.8668 14.8173 15.6866 15.2257 15.4281C15.6342 15.1696 16.0345 14.8482 16.211 14.3599C16.3374 14.0099 16.4017 13.6863 16.425 13.4201C16.4366 13.287 16.4381 13.1696 16.4294 13.0608C16.4208 12.952 16.43 12.8687 16.3287 12.7024C16.1161 12.3534 15.8754 12.3443 15.6243 12.22C15.4847 12.1509 15.0874 11.9569 14.6889 11.767C14.2909 11.5774 13.9462 11.4094 13.734 11.3337C13.5999 11.2854 13.4361 11.216 13.1999 11.2427C12.9637 11.2695 12.7303 11.4399 12.5945 11.6413C12.4657 11.8322 11.9474 12.444 11.7893 12.6239C11.7872 12.6226 11.8009 12.6289 11.7385 12.598C11.543 12.5013 11.304 12.4191 10.9503 12.2325C10.5966 12.0459 10.1541 11.7703 9.66988 11.3435V11.3426C8.94921 10.7082 8.44441 9.91159 8.28516 9.64402C8.29588 9.63126 8.28388 9.64672 8.30656 9.62441L8.30745 9.62351C8.4702 9.4632 8.61445 9.27174 8.73633 9.13133C8.90914 8.93224 8.9854 8.75674 9.06802 8.59277C9.23267 8.26598 9.14099 7.90638 9.04573 7.71718V7.71629C9.05231 7.72938 8.9942 7.60116 8.9316 7.45325C8.86882 7.30492 8.7888 7.11263 8.70334 6.90757C8.53241 6.49745 8.34158 6.03746 8.22809 5.76805V5.76715C8.0944 5.44981 7.91353 5.2212 7.67706 5.1109C7.44058 5.00061 7.23166 5.03197 7.22321 5.03155H7.22232C7.05357 5.02376 6.86839 5.02174 6.68466 5.02174ZM6.68466 5.93478C6.86066 5.93478 7.03418 5.93693 7.17952 5.9437C7.32903 5.95115 7.31973 5.95176 7.29097 5.93835C7.26176 5.92473 7.3014 5.9203 7.38638 6.12203C7.4975 6.38583 7.68927 6.84748 7.86073 7.25887C7.94646 7.46457 8.0267 7.65761 8.09078 7.80902C8.15486 7.96043 8.18958 8.04496 8.22987 8.12555V8.12644L8.23077 8.12734C8.27027 8.20529 8.26678 8.15538 8.25306 8.18262C8.15672 8.37382 8.14365 8.42077 8.0462 8.53303C7.89782 8.70397 7.74647 8.8946 7.66636 8.97351C7.59627 9.04236 7.4698 9.14962 7.39084 9.35959C7.31175 9.56987 7.34866 9.85839 7.47554 10.0738C7.64447 10.3606 8.20114 11.2666 9.06624 12.0283C9.61104 12.5085 10.1186 12.8264 10.5241 13.0403C10.9295 13.2542 11.2598 13.3791 11.3337 13.4157C11.5092 13.5025 11.701 13.57 11.924 13.5432C12.147 13.5164 12.3392 13.3811 12.4616 13.2427L12.4625 13.2418C12.6254 13.0571 13.1094 12.5045 13.3417 12.1638C13.3515 12.1673 13.3483 12.1646 13.4255 12.1923V12.1932H13.4264C13.4616 12.2058 13.903 12.4034 14.2966 12.5909C14.6902 12.7785 15.0897 12.9734 15.2195 13.0376C15.4068 13.1303 15.4953 13.1907 15.5182 13.191C15.5197 13.2311 15.5213 13.2747 15.5155 13.3408C15.4995 13.5241 15.4505 13.7779 15.3523 14.0496C15.3042 14.1826 15.0538 14.457 14.738 14.6568C14.4222 14.8567 14.0377 14.9979 13.8954 15.0189C13.4673 15.0819 12.9591 15.1049 12.401 14.9297C12.014 14.8082 11.5314 14.651 10.9066 14.3849C9.63937 13.8445 8.56234 12.9248 7.79297 12.1148C7.40829 11.7097 7.10008 11.3327 6.88082 11.0475C6.66196 10.7628 6.56639 10.6146 6.48671 10.5098L6.48582 10.5089C6.34438 10.3219 5.47826 9.11713 5.47826 8.03193C5.47826 6.88343 6.01171 6.43305 6.30036 6.12203C6.45189 5.95875 6.61756 5.93478 6.68466 5.93478Z" fill="white"/>
</svg>

<svg width="21" height="21" fill="none" xmlns="http://www.w3.org/2000/svg"><path d="M10.5 0C4.707 0 0 4.707 0 10.5c0 1.862.51 3.6 1.362 5.117L.017 20.42a.457.457 0 00.55.567l5.008-1.241A10.426 10.426 0 0010.5 21C16.294 21 21 16.294 21 10.5 21 4.707 16.294 0 10.5 0zm0 .913a9.58 9.58 0 019.587 9.587 9.58 9.58 0 01-9.587 9.587c-1.7 0-3.29-.443-4.674-1.217a.456.456 0 00-.333-.045l-4.386 1.087 1.177-4.196a.456.456 0 00-.046-.356A9.532 9.532 0 01.913 10.5 9.58 9.58 0 0110.5.913zM6.685 5.022c-.293 0-.71.109-1.054.479-.206.222-1.066 1.059-1.066 2.53 0 1.536 1.065 2.86 1.193 3.03h.001a14.457 14.457 0 001.371 1.682c.824.867 1.981 1.87 3.418 2.482a16.25 16.25 0 001.58.576c.732.23 1.4.195 1.901.121.376-.055.788-.235 1.197-.494.408-.258.809-.58.985-1.068.126-.35.19-.674.214-.94a2.15 2.15 0 00.004-.36c-.008-.108.001-.191-.1-.358-.213-.349-.454-.358-.705-.482-.14-.07-.537-.263-.935-.453s-.743-.358-.955-.433c-.134-.049-.298-.118-.534-.091-.236.027-.47.197-.605.398-.13.191-.648.803-.806.983-.002-.001.012.005-.05-.026-.196-.097-.435-.179-.789-.366a6.525 6.525 0 01-1.28-.888v-.001c-.72-.635-1.226-1.431-1.385-1.699.01-.013-.001.003.022-.02.163-.16.307-.352.43-.493.172-.199.248-.374.331-.538.165-.327.073-.687-.022-.876.006.012-.052-.116-.114-.264l-.229-.545c-.17-.41-.361-.87-.475-1.14-.134-.318-.314-.547-.55-.657-.237-.11-.446-.079-.455-.08-.17-.007-.355-.01-.538-.01zm0 .913c.176 0 .35.002.495.009.149.007.14.008.111-.006-.03-.013.01-.018.095.184l.475 1.137c.085.206.166.399.23.55.064.151.099.236.139.317v.001c.04.078.037.028.023.056-.096.19-.11.238-.207.35-.148.171-.3.362-.38.44-.07.07-.196.177-.275.387-.08.21-.042.498.085.714.168.287.725 1.193 1.59 1.954.545.48 1.053.798 1.458 1.012.406.214.736.34.81.376.175.086.367.154.59.127a.89.89 0 00.538-.3v-.001c.163-.185.647-.738.88-1.078.01.003.006 0 .083.028v.001h.001c.036.013.477.21.87.398.394.188.794.382.924.447.187.092.275.153.298.153a.988.988 0 01-.003.15 2.903 2.903 0 01-.163.709c-.048.133-.298.407-.614.607s-.7.34-.843.362c-.428.063-.936.086-1.494-.09-.387-.12-.87-.278-1.494-.544-1.268-.54-2.345-1.46-3.114-2.27a13.585 13.585 0 01-.912-1.068c-.219-.284-.315-.432-.394-.537l-.001-.001c-.142-.187-1.008-1.392-1.008-2.477 0-1.149.534-1.599.822-1.91a.541.541 0 01.385-.187z" fill="#fff"/></svg>
